style/icons/shield40_hu_2.svg

<svg width="27.5" height="20" xmlns="http://www.w3.org/2000/svg">
 <g stroke-width=".5">
  <path d="m13.75 0h-13.75v14.023a3.9484 3.9484 0 0 0 2.6353 3.3241l11.115 2.6528 11.115-2.6528a3.9485 3.9485 0 0 0 2.635-3.3241v-14.023z" fill="#00008b"/>
  <path d="m13.75 0.5259h-13.221v13.082a3.4224 3.4224 0 0 0 2.6353 3.3244l10.586 2.5266 10.586-2.5266a3.4224 3.4224 0 0 0 2.6352-3.3244v-13.082z" fill="#fff"/>
  <path d="m13.75 1.8408h-11.899v11.768a2.1031 2.1031 0 0 0 1.3132 2.0458l10.586 2.453 10.277-2.453a2.106 2.106 0 0 0 1.6217-2.0458v-11.768z" fill="#00008b"/>
 </g>
</svg>

<svg width="27.5" height="20" xmlns="http://www.w3.org/2000/svg">
 <g stroke-width=".5">
  <path d="M13.75 0H0v14.023a3.948 3.948 0 0 0 2.635 3.324L13.75 20l11.115-2.653a3.949 3.949 0 0 0 2.635-3.324V0z" fill="#00008b"/>
  <path d="M13.75.526H.529v13.082a3.422 3.422 0 0 0 2.635 3.324L13.75 19.46l10.586-2.527a3.422 3.422 0 0 0 2.636-3.324V.526z" fill="#fff"/>
  <path d="M13.75 1.84H1.851v11.77a2.103 2.103 0 0 0 1.313 2.046l10.586 2.453 10.277-2.453a2.106 2.106 0 0 0 1.622-2.046V1.84z" fill="#00008b"/>
 </g>
</svg>
